assets/images/flags/se.svg

<svg xmlns="http://www.w3.org/2000/svg" height="480" width="640" viewBox="0 0 640 480"><defs><clipPath id="a"><path fill-opacity=".67" d="M-53.421 0h682.67v512h-682.67z"/></clipPath></defs><g clip-path="url(#a)" transform="translate(50.082) scale(.9375)"><g fill-rule="evenodd" stroke-width="1pt"><path fill="#006aa7" d="M-121.103.302h256V205.1h-256zM-121.103 307.178h256v204.8h-256z"/><path fill="#fecc00" d="M-121.103 204.984h256v102.4h-256z"/><path fill="#fecc00" d="M133.843.01h102.4v511.997h-102.4z"/><path fill="#fecc00" d="M232.995 205.013h460.798v102.4H232.995z"/><path fill="#006aa7" d="M236.155 307.208h460.797v204.799H236.155zM236.155.302h460.797V205.1H236.155z"/></g></g></svg>

<svg xmlns="http://www.w3.org/2000/svg" width="640" height="480"><defs><clipPath id="a"><path fill-opacity=".7" d="M-53.4 0h682.6v512H-53.4z"/></clipPath></defs><g clip-path="url(#a)" transform="translate(50) scale(.9375)"><g fill-rule="evenodd" stroke-width="1pt"><path fill="#006aa7" d="M-121.1.3h256v204.8h-256zm0 306.9h256V512h-256z"/><path fill="#fecc00" d="M-121.1 205h256v102.4h-256z"/><path fill="#fecc00" d="M133.8 0h102.4v512H133.8z"/><path fill="#fecc00" d="M233 205h460.8v102.4H233z"/><path fill="#006aa7" d="M236.2 307.2H697V512H236.2zm0-306.9H697v204.8H236.2z"/></g></g></svg>
